icons/ice-cube-21.svg

<?xml version="1.0" encoding="UTF-8"?><svg id="point_symbol" xmlns="http://www.w3.org/2000/svg" viewBox="0 0 21 21"><path d="M7.83002,9.618l1.81.97998-1.57397,7.10193-1.8678-.99615,1.63177-7.08575ZM10.5,9.92799c.10001-.05533.2068-.10999,7.35114-4.0094l-7.35114-3.92059-7.34918,3.91956,7.34918,4.01044ZM11,10.79799v7.93335l7-3.73334V6.97865l-7,3.81934ZM6.91998,9.118l-3.91998-2.1391v8.0191l2.28101,1.21655,1.63898-7.09656Z"/></svg>

<svg xmlns="http://www.w3.org/2000/svg" viewBox="0 0 21 21"><path d="M7.83 9.618l1.81.98L8.066 17.7l-1.868-.996L7.83 9.618zm2.67.31c.1-.055.207-.11 7.351-4.01L10.5 1.999l-7.35 3.92 7.35 4.01zm.5.87v7.933l7-3.733v-8.02l-7 3.82zm-4.08-1.68L3 6.978v8.02l2.281 1.217L6.92 9.118z"/></svg>
